build/category/CommitsOutline.svg

<svg xmlns="http://www.w3.org/2000/svg" fill="none" viewBox="0 0 24 24" focusable="false"><path d="M0 0H24V24H0z"/><path fill="#74767B" fill-rule="evenodd" d="M12.0001 3.00293C12.3591 3.00293 12.6501 3.29394 12.6501 3.65293L12.6501 8.05253C14.5501 8.36306 16 10.0122 16 12C16 13.9877 14.5501 15.6369 12.6501 15.9474L12.6501 20.3524C12.6501 20.7114 12.3591 21.0024 12.0001 21.0024C11.6411 21.0024 11.3501 20.7114 11.3501 20.3524L11.3501 15.9474C9.45005 15.637 8 13.9878 8 12C8 10.0121 9.45005 8.36295 11.3501 8.0525L11.3501 3.65293C11.3501 3.29394 11.6411 3.00293 12.0001 3.00293ZM12.0158 14.6999C12.0106 14.6998 12.0054 14.6997 12.0001 14.6997C11.9948 14.6997 11.9896 14.6998 11.9843 14.6999C10.5004 14.6915 9.3 13.4859 9.3 12C9.3 10.5088 10.5088 9.29997 12 9.29997C13.4912 9.29997 14.7 10.5088 14.7 12C14.7 13.4859 13.4997 14.6914 12.0158 14.6999Z"/></svg>

<svg xmlns="http://www.w3.org/2000/svg" fill="none" viewBox="0 0 24 24" focusable="false"><path fill="#74767B" fill-rule="evenodd" d="M12 3c.35 0 .65.29.65.65v4.4a3.999 3.999 0 0 1 0 7.89v4.41c0 .36-.3.65-.65.65-.36 0-.65-.29-.65-.65v-4.41A3.99 3.99 0 0 1 8 12c0-1.99 1.44-3.64 3.35-3.95v-4.4c0-.36.29-.65.65-.65m.01 11.7c0-.01-.01-.01-.01-.01-.01 0-.02 0-.02.01A2.704 2.704 0 0 1 9.3 12c0-1.5 1.2-2.71 2.7-2.71 1.49 0 2.7 1.21 2.7 2.71 0 1.48-1.21 2.69-2.69 2.7"/></svg>
